src/assets/icons/muscles_parts/legs_back.svg

<svg id="Layer_2" enable-background="new 0 0 512 512" viewBox="0 0 512 512" xmlns="http://www.w3.org/2000/svg"><g><g><path d="m376.405 10.998h-.005-243.258c-2.145 0-4.2.861-5.704 2.39s-2.331 3.598-2.295 5.743l1.428 85.668c-2.813 5.314-10.695 21.029-18.735 44.541-9.029 26.405-19.953 68.092-20.726 116.742-1.026 64.644 11.911 139.871 19.641 184.818 3.298 19.178 5.903 34.325 5.903 39.679 0 4.407 3.564 7.984 7.971 8l89.552.323h.029c2.845 0 5.478-1.512 6.911-3.971 14.403-24.71 25.815-61.877 33.918-110.468 1.344-8.061 2.592-16.452 3.735-25.084 1.143 8.633 2.391 17.023 3.735 25.084 8.103 48.591 19.515 85.758 33.918 110.468 1.434 2.459 4.066 3.971 6.912 3.971h.029l89.552-.323c4.407-.016 7.971-3.593 7.971-8 0-5.354 2.605-20.502 5.903-39.679 3.84-22.331 9.1-52.913 13.147-85.223 4.822-38.493 6.946-71.071 6.493-99.595-.772-48.65-11.697-90.337-20.726-116.742-8.04-23.512-15.922-39.227-18.735-44.541l1.425-85.463c.005-.112.007-.225.007-.338.002-4.419-3.577-8-7.996-8z" fill="#484f69"/></g><g><path d="m155.098 66.418c20.473-.514 66.819 3.535 94.291 46.718v87.635s-24.656 48.627-71.86 28.855c-39.569-16.574-35.763-119.51-33.497-152.373.415-6.017 5.212-10.688 11.066-10.835z" fill="#9fabce"/></g><g fill="#FF4858"><path d="m213.994 243.813c6.696-2.688 15.225-6.397 21.764-10.207 2.976-1.734 6.643.683 6.204 4.099l-11.707 129.436c-.353 3.903-6.035 3.957-6.462.062-3.625-33.044-9.841-82.168-17.163-108.564-1.69-6.093 1.497-12.471 7.364-14.826z"/><path d="m194.452 253.04 25.288 138.893c2.229 12.245.922 24.872-3.768 36.4l-21.542 52.947c-2.35 5.776-10.82 4.788-11.77-1.375-6.681-43.335-19.448-144.075-8.933-226.351.844-6.605 7.586-10.736 13.871-8.536 3.56 1.246 6.178 4.309 6.854 8.022z"/><path d="m165.221 238.417c1.265 1.529 1.869 3.495 1.678 5.47-1.693 17.489-9.914 105.101-9.116 149.006.561 30.837-10.543 61.674-18.827 80.256-2.574 5.773-11.071 4.708-12.149-1.52-4.886-28.234-13.236-79.986-12.604-100.526.71-23.064 27.467-100.204 38.252-130.44 1.943-5.448 9.077-6.702 12.766-2.246z"/></g><path d="m125.987 163.333c1.149-2.664 4.977-2.503 5.87.257 5.248 16.233 16.862 53.502 16.163 63.338-.731 10.287-25.81 72.296-35.576 103.532-.968 3.097-5.488 2.633-5.8-.597-3.127-32.371-6.482-106.624 19.343-166.53z" fill="#ff8564"/><g><path d="m352.556 66.418c-20.473-.514-66.819 3.535-94.291 46.718v87.635s24.656 48.627 71.86 28.855c39.569-16.574 35.763-119.51 33.497-152.373-.415-6.017-5.211-10.688-11.066-10.835z" fill="#9fabce"/></g><path d="m293.66 243.813c-6.696-2.688-15.225-6.397-21.764-10.207-2.976-1.734-6.643.683-6.204 4.099l11.708 129.436c.353 3.903 6.035 3.957 6.462.062 3.625-33.044 9.841-82.168 17.163-108.564 1.69-6.093-1.497-12.471-7.365-14.826z" fill="#FF4858"/><path d="m313.203 253.04-25.288 138.893c-2.229 12.245-.922 24.872 3.768 36.4l21.542 52.947c2.35 5.776 10.82 4.788 11.77-1.375 6.681-43.335 19.448-144.075 8.933-226.351-.844-6.605-7.586-10.736-13.871-8.536-3.561 1.246-6.178 4.309-6.854 8.022z" fill="#FF4858"/><path d="m342.434 238.417c-1.265 1.529-1.869 3.495-1.678 5.47 1.693 17.489 9.914 105.101 9.116 149.006-.561 30.837 10.543 61.674 18.827 80.256 2.574 5.773 11.072 4.708 12.149-1.52 4.886-28.234 13.236-79.986 12.604-100.526-.71-23.064-27.467-100.204-38.252-130.44-1.944-5.448-9.078-6.702-12.766-2.246z" fill="#FF4858"/><path d="m381.667 163.333c-1.149-2.664-4.977-2.503-5.87.257-5.248 16.233-16.862 53.502-16.163 63.338.731 10.287 25.81 72.296 35.576 103.532.968 3.097 5.488 2.633 5.8-.597 3.127-32.371 6.483-106.624-19.343-166.53z" fill="#ff8564"/><g><g><path d="m171.331 46.926c.374 6.505 5.603 11.583 11.927 11.583 14.415 0 28.378 5.184 39.481 14.659l18.348 15.657c3.305 2.82 8.303.398 8.303-4.024v-54.054h-78.99z" fill="#9fabce"/></g><g><path d="m139.761 38.82 1.914 13.527c.527 3.724 3.864 6.392 7.613 6.087l11.097-.904c3.504-.286 6.836-3.098 6.513-6.599-.622-6.736-1.385-13.518-2.233-20.185h-25.685c.153 2.698.402 5.392.781 8.074z" fill="#9fabce"/></g><g><path d="m258.265 84.802c0 4.422 4.998 6.844 8.303 4.024l18.348-15.657c11.102-9.474 25.066-14.659 39.481-14.659 6.324 0 11.552-5.078 11.927-11.583l.93-16.179h-78.989z" fill="#9fabce"/></g><g><path d="m340.757 50.932c-.323 3.501 3.009 6.313 6.513 6.599l11.097.904c3.749.305 7.086-2.363 7.613-6.087l1.914-13.527c.379-2.683.628-5.376.781-8.073h-25.685c-.848 6.666-1.611 13.447-2.233 20.184z" fill="#9fabce"/></g></g></g></svg>

<svg  viewBox="0 0 512 512" fill="none" xmlns="http://www.w3.org/2000/svg">
<path d="M376.405 10.998H376.4H133.142C130.997 10.998 128.942 11.859 127.438 13.388C125.934 14.917 125.107 16.986 125.143 19.131L126.571 104.799C123.758 110.113 115.876 125.828 107.836 149.34C98.807 175.745 87.883 217.432 87.11 266.082C86.084 330.726 99.021 405.953 106.751 450.9C110.049 470.078 112.654 485.225 112.654 490.579C112.654 494.986 116.218 498.563 120.625 498.579L210.177 498.902H210.206C213.051 498.902 215.684 497.39 217.117 494.931C231.52 470.221 242.932 433.054 251.035 384.463C252.379 376.402 253.627 368.011 254.77 359.379C255.913 368.012 257.161 376.402 258.505 384.463C266.608 433.054 278.02 470.221 292.423 494.931C293.857 497.39 296.489 498.902 299.335 498.902H299.364L388.916 498.579C393.323 498.563 396.887 494.986 396.887 490.579C396.887 485.225 399.492 470.077 402.79 450.9C406.63 428.569 411.89 397.987 415.937 365.677C420.759 327.184 422.883 294.606 422.43 266.082C421.658 217.432 410.733 175.745 401.704 149.34C393.664 125.828 385.782 110.113 382.969 104.799L384.394 19.336C384.399 19.224 384.401 19.111 384.401 18.998C384.403 14.579 380.824 10.998 376.405 10.998Z" fill="#484F69"/>
<path d="M155.098 66.418C175.571 65.904 221.917 69.9531 249.389 113.136V200.771C249.389 200.771 224.733 249.398 177.529 229.626C137.96 213.052 141.766 110.116 144.032 77.253C144.447 71.236 149.244 66.565 155.098 66.418Z" fill="#9FABCE"/>
<path d="M213.994 243.813C220.69 241.125 229.219 237.416 235.758 233.606C238.734 231.872 242.401 234.289 241.962 237.705L230.255 367.141C229.902 371.044 224.22 371.098 223.793 367.203C220.168 334.159 213.952 285.035 206.63 258.639C204.94 252.546 208.127 246.168 213.994 243.813Z" fill="#FF4858"/>
<path d="M194.452 253.04L219.74 391.933C221.969 404.178 220.662 416.805 215.972 428.333L194.43 481.28C192.08 487.056 183.61 486.068 182.66 479.905C175.979 436.57 163.212 335.83 173.727 253.554C174.571 246.949 181.313 242.818 187.598 245.018C191.158 246.264 193.776 249.327 194.452 253.04Z" fill="#FF4858"/>
<path d="M165.221 238.417C166.486 239.946 167.09 241.912 166.899 243.887C165.206 261.376 156.985 348.988 157.783 392.893C158.344 423.73 147.24 454.567 138.956 473.149C136.382 478.922 127.885 477.857 126.807 471.629C121.921 443.395 113.571 391.643 114.203 371.103C114.913 348.039 141.67 270.899 152.455 240.663C154.398 235.215 161.532 233.961 165.221 238.417Z" fill="#FF4858"/>
<path d="M125.987 163.333C127.136 160.669 130.964 160.83 131.857 163.59C137.105 179.823 148.719 217.092 148.02 226.928C147.289 237.215 122.21 299.224 112.444 330.46C111.476 333.557 106.956 333.093 106.644 329.863C103.517 297.492 100.162 223.239 125.987 163.333Z" fill="#9FABCE"/>
<path d="M352.556 66.418C332.083 65.904 285.737 69.9531 258.265 113.136V200.771C258.265 200.771 282.921 249.398 330.125 229.626C369.694 213.052 365.888 110.116 363.622 77.253C363.207 71.236 358.411 66.565 352.556 66.418Z" fill="#9FABCE"/>
<path d="M293.66 243.813C286.964 241.125 278.435 237.416 271.896 233.606C268.92 231.872 265.253 234.289 265.692 237.705L277.4 367.141C277.753 371.044 283.435 371.098 283.862 367.203C287.487 334.159 293.703 285.035 301.025 258.639C302.715 252.546 299.528 246.168 293.66 243.813Z" fill="#FF4858"/>
<path d="M313.203 253.04L287.915 391.933C285.686 404.178 286.993 416.805 291.683 428.333L313.225 481.28C315.575 487.056 324.045 486.068 324.995 479.905C331.676 436.57 344.443 335.83 333.928 253.554C333.084 246.949 326.342 242.818 320.057 245.018C316.496 246.264 313.879 249.327 313.203 253.04Z" fill="#FF4858"/>
<path d="M342.434 238.417C341.169 239.946 340.565 241.912 340.756 243.887C342.449 261.376 350.67 348.988 349.872 392.893C349.311 423.73 360.415 454.567 368.699 473.149C371.273 478.922 379.771 477.857 380.848 471.629C385.734 443.395 394.084 391.643 393.452 371.103C392.742 348.039 365.985 270.899 355.2 240.663C353.256 235.215 346.122 233.961 342.434 238.417Z" fill="#FF4858"/>
<path d="M381.667 163.333C380.518 160.669 376.69 160.83 375.797 163.59C370.549 179.823 358.935 217.092 359.634 226.928C360.365 237.215 385.444 299.224 395.21 330.46C396.178 333.557 400.698 333.093 401.01 329.863C404.137 297.492 407.493 223.239 381.667 163.333Z" fill="#9FABCE"/>
<path d="M171.331 46.9261C171.705 53.4311 176.934 58.5091 183.258 58.5091C197.673 58.5091 211.636 63.6931 222.739 73.1681L241.087 88.8251C244.392 91.6451 249.39 89.2231 249.39 84.8011V30.7471H170.4L171.331 46.9261Z" fill="#9FABCE"/>
<path d="M139.761 38.8201L141.675 52.3471C142.202 56.0711 145.539 58.7391 149.288 58.4341L160.385 57.5301C163.889 57.2441 167.221 54.4321 166.898 50.9311C166.276 44.1951 165.513 37.4131 164.665 30.7461H138.98C139.133 33.4441 139.382 36.1381 139.761 38.8201Z" fill="#9FABCE"/>
<path d="M258.265 84.802C258.265 89.224 263.263 91.646 266.568 88.826L284.916 73.169C296.018 63.695 309.982 58.51 324.397 58.51C330.721 58.51 335.949 53.432 336.324 46.927L337.254 30.748H258.265V84.802Z" fill="#9FABCE"/>
<path d="M340.757 50.932C340.434 54.433 343.766 57.245 347.27 57.531L358.367 58.435C362.116 58.74 365.453 56.072 365.98 52.348L367.894 38.821C368.273 36.138 368.522 33.445 368.675 30.748H342.99C342.142 37.414 341.379 44.195 340.757 50.932Z" fill="#9FABCE"/>
</svg>
